Papirus/48x48/mimetypes/application-x.allegorithmic.spp.svg

<svg width="48" height="48" version="1.1" xmlns="http://www.w3.org/2000/svg">
 <path d="m10 5c-1.108 0-2 0.892-2 2v36c0 1.108 0.892 2 2 2h28c1.108 0 2-0.892 2-2v-26l-12-12z" style="opacity:.2"/>
 <path d="m10 4c-1.108 0-2 0.892-2 2v36c0 1.108 0.892 2 2 2h28c1.108 0 2-0.892 2-2v-26l-10-2-2-10z" style="fill:#e4e4e4"/>
 <path d="m40 17-12-12v10c0 1.108 0.892 2 2 2z" style="opacity:.2"/>
 <path d="m40 16-12-12v10c0 1.108 0.892 2 2 2z" style="fill:#fafafa"/>
 <path d="m10 4c-1.108 0-2 0.892-2 2v1c0-1.108 0.892-2 2-2h18v-1z" style="fill:#ffffff;opacity:.2"/>
 <path d="m24 18.999987-9 4.5v4l13.2 4.4-4.2 2.1-5-2.5v-1.5l-4-1.333333v4.833333l9 4.500013 9-4.500013v-4l-13.200006-4.400002 4.200006-2.099998 5 2.5v1.5l4 1.333333v-4.833333z" style="opacity:.1"/>
 <path d="m24 17.999987-9 4.5v4l13.2 4.4-4.2 2.1-5-2.5v-1.5l-4-1.333333v4.833333l9 4.500013 9-4.500013v-4l-13.200006-4.400002 4.200006-2.099998 5 2.5v1.5l4 1.333333v-4.833333z" style="fill:#e2222f"/>
</svg>

<svg xmlns="http://www.w3.org/2000/svg" width="48" height="48" version="1.1">
 <path style="opacity:0.2" d="M 10,5 C 8.892,5 8,5.892 8,7 V 43 C 8,44.108 8.892,45 10,45 H 38 C 39.108,45 40,44.108 40,43 V 17 L 28,5 Z"/>
 <path style="fill:#e4e4e4" d="M 10,4 C 8.892,4 8,4.892 8,6 V 42 C 8,43.108 8.892,44 10,44 H 38 C 39.108,44 40,43.108 40,42 V 16 L 30,14 28,4 Z"/>
 <path style="opacity:0.2" d="M 40,17 28,5 V 15 C 28,16.108 28.892,17 30,17 Z"/>
 <path style="fill:#fafafa" d="M 40,16 28,4 V 14 C 28,15.108 28.892,16 30,16 Z"/>
 <path style="opacity:0.2;fill:#ffffff" d="M 10 4 C 8.892 4 8 4.892 8 6 L 8 7 C 8 5.892 8.892 5 10 5 L 28 5 L 28 4 L 10 4 z"/>
 <path style="opacity:0.2" d="M 24,19 15,23.5 V 27.5 L 28.2,31.9 24,34 19,31.5 V 30 L 15,28.667 V 33.5 L 24,38 33,33.5 V 29.5 L 19.8,25.1 24,23 29,25.5 V 27 L 33,28.333 V 23.5 Z"/>
 <path style="fill:#e2222f" d="M 24,18 15,22.5 V 26.5 L 28.2,30.9 24,33 19,30.5 V 29 L 15,27.667 V 32.5 L 24,37 33,32.5 V 28.5 L 19.8,24.1 24,22 29,24.5 V 26 L 33,27.333 V 22.5 Z"/>
</svg>
